static/assets/images/protocols/aave-mono.svg

<svg width="220" height="323" viewBox="0 0 220 323" fill="none" xmlns="http://www.w3.org/2000/svg">
<path d="M207.446 323C204.212 322.993 201.113 321.698 198.827 319.397C196.539 317.097 195.252 313.979 195.245 310.727V274.973C195.245 271.719 193.959 268.596 191.671 266.295C189.383 263.993 186.279 262.7 183.043 262.7C179.807 262.7 176.703 263.993 174.415 266.295C172.127 268.596 170.842 271.719 170.842 274.973V291.945C170.842 295.201 169.556 298.323 167.268 300.624C164.98 302.926 161.876 304.219 158.64 304.219C155.404 304.219 152.3 302.926 150.012 300.624C147.724 298.323 146.438 295.201 146.438 291.945V274.973C146.438 271.719 145.153 268.596 142.865 266.295C140.576 263.993 137.473 262.7 134.237 262.7C131 262.7 127.897 263.993 125.608 266.295C123.32 268.596 122.035 271.719 122.035 274.973V279.592C122.035 282.85 120.748 285.974 118.458 288.277C116.168 290.581 113.062 291.875 109.824 291.875C106.585 291.875 103.48 290.581 101.19 288.277C98.8997 285.974 97.6134 282.85 97.6134 279.592V274.973C97.6134 271.719 96.3278 268.596 94.0391 266.295C91.7511 263.993 88.6477 262.7 85.4116 262.7C82.1756 262.7 79.0722 263.993 76.7835 266.295C74.4955 268.596 73.2099 271.719 73.2099 274.973V291.945C73.2099 295.201 71.9242 298.323 69.6362 300.624C67.3478 302.926 64.2442 304.219 61.0082 304.219C57.7721 304.219 54.6686 302.926 52.3803 300.624C50.092 298.323 48.8066 295.201 48.8066 291.945V274.973C48.8066 271.719 47.521 268.596 45.2328 266.295C42.9445 263.993 39.841 262.7 36.6049 262.7C33.3688 262.7 30.2653 263.993 27.9771 266.295C25.6888 268.596 24.4032 271.719 24.4032 274.973V310.727C24.4032 313.981 23.1178 317.104 20.8295 319.405C18.5413 321.707 15.4377 323 12.2016 323C8.96556 323 5.86203 321.707 3.57378 319.405C1.28552 317.104 0 313.981 0 310.727V108.079C0.588847 82.9299 9.67692 58.7325 25.7669 39.474C41.8569 20.2155 63.9888 7.0447 88.5164 2.13163C113.044 -2.78146 138.503 0.856284 160.701 12.4455C182.897 24.0347 200.507 42.884 210.63 65.8877C216.493 79.1907 219.675 93.5312 219.993 108.079C220.013 108.23 219.991 108.384 219.927 108.522C219.864 108.661 219.762 108.778 219.634 108.861V310.718C219.632 313.971 218.347 317.09 216.063 319.392C213.778 321.694 210.68 322.992 207.446 323ZM97.478 140.284C94.3794 140.284 93.1226 141.489 93.1226 144.47C93.1226 151.714 101.08 157.605 110.876 157.605C120.671 157.605 128.602 151.714 128.602 144.47C128.602 141.495 127.345 140.289 124.255 140.289C122.602 140.348 120.955 140.516 119.324 140.793L119.17 140.82C116.428 141.272 113.657 141.526 110.879 141.58C108.093 141.526 105.315 141.273 102.565 140.82C100.884 140.524 99.1836 140.345 97.478 140.284ZM150.592 80.6476C139.791 80.6476 131.011 90.763 131.011 103.202C131.011 115.64 139.791 125.737 150.592 125.737C161.393 125.737 170.141 115.627 170.141 103.202C170.141 90.7761 161.374 80.6476 150.592 80.6476ZM69.4114 80.6476C58.6369 80.6476 49.8623 90.763 49.8623 103.202C49.8623 115.64 58.6369 125.737 69.4114 125.737C80.1859 125.737 88.966 115.627 88.966 103.202C88.966 90.7761 80.1942 80.6476 69.4114 80.6476Z" fill="black"/>
</svg>

<svg xmlns="http://www.w3.org/2000/svg" fill="none" viewBox="0 0 220 323"><path fill="#000" d="M207.446 323a12.19 12.19 0 0 1-8.619-3.603 12.33 12.33 0 0 1-3.582-8.67v-35.754a12.3 12.3 0 0 0-3.574-8.678 12.17 12.17 0 0 0-8.628-3.595c-3.236 0-6.34 1.293-8.628 3.595a12.3 12.3 0 0 0-3.573 8.678v16.972a12.3 12.3 0 0 1-3.574 8.679 12.17 12.17 0 0 1-8.628 3.595c-3.236 0-6.34-1.293-8.628-3.595a12.3 12.3 0 0 1-3.574-8.679v-16.972a12.3 12.3 0 0 0-3.573-8.678 12.17 12.17 0 0 0-8.628-3.595c-3.237 0-6.34 1.293-8.629 3.595a12.3 12.3 0 0 0-3.573 8.678v4.619c0 3.258-1.287 6.382-3.577 8.685a12.17 12.17 0 0 1-8.634 3.598 12.17 12.17 0 0 1-8.634-3.598 12.32 12.32 0 0 1-3.577-8.685v-4.619c0-3.254-1.285-6.377-3.574-8.678a12.16 12.16 0 0 0-8.627-3.595c-3.236 0-6.34 1.293-8.629 3.595a12.3 12.3 0 0 0-3.573 8.678v16.972a12.3 12.3 0 0 1-3.574 8.679 12.17 12.17 0 0 1-8.628 3.595c-3.236 0-6.34-1.293-8.628-3.595a12.3 12.3 0 0 1-3.573-8.679v-16.972a12.3 12.3 0 0 0-3.574-8.678 12.17 12.17 0 0 0-8.628-3.595c-3.236 0-6.34 1.293-8.628 3.595a12.3 12.3 0 0 0-3.574 8.678v35.754a12.3 12.3 0 0 1-3.573 8.678A12.17 12.17 0 0 1 12.202 323c-3.236 0-6.34-1.293-8.628-3.595A12.3 12.3 0 0 1 0 310.727V108.079c.589-25.15 9.677-49.346 25.767-68.605 16.09-19.258 38.222-32.43 62.75-37.342A109.47 109.47 0 0 1 160.7 12.446c22.196 11.589 39.806 30.438 49.929 53.442a110.6 110.6 0 0 1 9.363 42.191.8.8 0 0 1-.359.782v201.857a12.33 12.33 0 0 1-3.571 8.674 12.18 12.18 0 0 1-8.617 3.608M97.478 140.284c-3.099 0-4.355 1.205-4.355 4.186 0 7.244 7.957 13.135 17.753 13.135s17.726-5.891 17.726-13.135c0-2.975-1.257-4.181-4.347-4.181-1.653.059-3.3.227-4.931.504l-.154.027a58 58 0 0 1-8.291.76 58 58 0 0 1-8.314-.76 37 37 0 0 0-5.087-.536m53.114-59.636c-10.801 0-19.581 10.115-19.581 22.554s8.78 22.535 19.581 22.535 19.549-10.11 19.549-22.535-8.767-22.554-19.549-22.554m-81.18 0c-10.775 0-19.55 10.115-19.55 22.554s8.775 22.535 19.55 22.535c10.774 0 19.554-10.11 19.554-22.535s-8.772-22.554-19.555-22.554"/></svg>
